X: 41375
T: Tuttle's
R: reel
M: 4/4
K: Ddorian
E3F GFGA|BdAd BeeB|E3F GBec|dBAF GFED|
E3F GFGA|BdAd Beef|gefd edBe|dBAF FEE2:|
e2ec d2dd|Beec dBAB|e2ec d2dB|AFdF FEEb|
e2ec d2dd|Beec dBAB|gefd edBe|dBAF FEE2:|

